svg/fluentui-system-icons/ic_fluent_tablet_32_regular.svg

<svg width="32" height="32" viewBox="0 0 32 32" fill="none" xmlns="http://www.w3.org/2000/svg">
<path d="M13 21C12.4477 21 12 21.4477 12 22C12 22.5523 12.4477 23 13 23H19C19.5523 23 20 22.5523 20 22C20 21.4477 19.5523 21 19 21H13ZM5.25 5C3.45507 5 2 6.45507 2 8.25V23.75C2 25.5449 3.45507 27 5.25 27H26.75C28.5449 27 30 25.5449 30 23.75V8.25C30 6.45507 28.5449 5 26.75 5H5.25ZM4 8.25C4 7.55964 4.55964 7 5.25 7H26.75C27.4404 7 28 7.55964 28 8.25V23.75C28 24.4404 27.4404 25 26.75 25H5.25C4.55964 25 4 24.4404 4 23.75V8.25Z" fill="#212121"/>
</svg>

<svg xmlns="http://www.w3.org/2000/svg" width="32" height="32"><path d="M13 21a1 1 0 1 0 0 2h6a1 1 0 1 0 0-2h-6ZM5.25 5A3.25 3.25 0 0 0 2 8.25v15.5A3.25 3.25 0 0 0 5.25 27h21.5A3.25 3.25 0 0 0 30 23.75V8.25A3.25 3.25 0 0 0 26.75 5H5.25ZM4 8.25C4 7.56 4.56 7 5.25 7h21.5c.69 0 1.25.56 1.25 1.25v15.5c0 .69-.56 1.25-1.25 1.25H5.25C4.56 25 4 24.44 4 23.75V8.25Z"/></svg>
